!!!OTL: 1488. Schaeferleben.
!!!ARE: Europa, Mitteleuropa, Deutschland, Halberstadt
!!!SCT: E1488
!!!TXL: @@DE
!!!YEM: Copyright 1995, estate of Helmut Schaffrath.
**kern	**text
*ICvox	*
*M4/4	*
*met(c)	*
*k[f#]	*
*G:	*
=1	=1
!LO:TX:a:t=Etwas schnell.	!
!LO:TX:a:t=Aus dem Halberſtädtiſchen 1840. Erk I, 5, 21.	!
{8gL	Wenn
8aJ	.
8bL	der
8ccJ	.
4dd	Schä-
4dd	-fer
=2	=2
4ee	ſche-
4ee	-ren
4dd	will,
4r}	.
=3	=3
{4cc	treibt
8cc	er
8cc	die
4b	Schaf
8b	in
8b	die
=4	=4
2a	Hek-
4g	-ke.
4r}	.
=5	=5
{8gL	Schnei-
8aJ	.
8bL	-det
8ccJ	.
4dd	ihn
4dd	die
=6	=6
4ee	Wol-
4ee	-le
4dd	ab,
4r}	.
=7	=7
{4cc	ſteckt
8cc	ſie
8cc	.
4b	in
8b	die
8b	.
=8	=8
2a	Säk-
4g}	-ke.
{4g	.
=9	=9
4.b	Dann
8b	fängt
4b	er
4cc	an
=10	=10
2b	ʒu
4a}	ſin-
{4g	-gen,
=11	=11
4.b	dann
8b	fängt
4b	er
4cc	an
=12	=12
2b	ʒu
4a	ſprin-
4r}	-gen,
=13	=13
{8gL	.
8aJ	ſpielt
8bL	.
8ccJ	auf
4dd	.
4dd	ſei-
=14	=14
4ee	-ner
4ee	Du-
4dd	-del-
4r}	-du
=15	=15
{4cc	Lie-
4cc	-ber
4b	Freund,
4b	ich
=16	=16
2a	bring_dirs
4g	ʒu!
4r}	.
==	==
!!!AGN: Staende - Lied, Hirten -,  Schaefer - Lied
!!!ONB: ESAC (Essen Associative Code) Database: ERK3
!!!AMT: simple quadruple
!!!AIN: vox
!!!EED: Helmut Schaffrath
!!!EEV: 1.0
!!!GTL: Staendelieder (Berufslieder). 3. Hirtenlieder. Schaeferlieder.
!!!URL-scan: https://rosdok.uni-rostock.de/mcrviewer/recordIdentifier/rosdok_ppn745177999/iview2/phys_0346.iview2?x=-128.77276441889285&y=529.5385617415886&scale=0.5870222003877487&rotation=0&layout=singlePageLayout
!!!ENC: Anna Maria Matuszewska
!!!EEV: 2025/03/01
*-	*-
